X: 23438
T: Leslie's March
R: jig
M: 6/8
K: Dmajor
|:d3 d3|dcB ABc|dcB AGF|EFG FED|
efe ede|fed eag|fed BAB|1 def edc:|2 def e2d||
|:fed eAA|fed eAA|gfe fBB|gfe fBB|
fed eAA|fed eag|fed BAB|1 def e2d:|2 def e2c||
|:dfa dfa|dfa afd|egb egb|egb bge|
dfa dfa|dfa a2g|fed BAB|1 def e2c:|2 def gfe||

